public/assets/icons/mech.svg

<?xml version="1.0" standalone="no"?>
<!DOCTYPE svg PUBLIC "-//W3C//DTD SVG 1.1//EN" "http://www.w3.org/Graphics/SVG/1.1/DTD/svg11.dtd" >
<svg xmlns="http://www.w3.org/2000/svg" xmlns:xlink="http://www.w3.org/1999/xlink" version="1.1" viewBox="0 -64 1024 1024" width="512" height="512">
  <g transform="matrix(1 0 0 -1 0 960)">
   <path fill="currentColor"
d="M478 107h-103v307h51v-68l52 -35v-204zM444 789l-34 -68h-171v-68l136 -34v-103l69 -34l34 -102h68l34 102l69 34v103l136 34v68h-171l-34 68h-136zM512 721l68 -68l-68 -68l-68 68zM547 107h102v307h-52v-68l-50 -35v-204zM785 585l-68 -18v-221l68 34v205zM239 585
l68 -18v-221l-68 34v205z" />
  </g>

</svg>

<?xml version="1.0" encoding="UTF-8" standalone="no"?>
<svg
   version="1.1"
   viewBox="0 -64 1024 1024"
   width="512"
   height="512"
   id="svg963"
   sodipodi:docname="mech.svg"
   inkscape:version="1.2.2 (732a01da63, 2022-12-09)"
   xmlns:inkscape="http://www.inkscape.org/namespaces/inkscape"
   xmlns:sodipodi="http://sodipodi.sourceforge.net/DTD/sodipodi-0.dtd"
   xmlns="http://www.w3.org/2000/svg"
   xmlns:svg="http://www.w3.org/2000/svg">
  <defs
     id="defs967" />
  <sodipodi:namedview
     id="namedview965"
     pagecolor="#ffffff"
     bordercolor="#000000"
     borderopacity="0.25"
     inkscape:showpageshadow="2"
     inkscape:pageopacity="0.0"
     inkscape:pagecheckerboard="0"
     inkscape:deskcolor="#d1d1d1"
     showgrid="false"
     inkscape:zoom="1.6191406"
     inkscape:cx="236.23643"
     inkscape:cy="256.30881"
     inkscape:window-width="1920"
     inkscape:window-height="1009"
     inkscape:window-x="-8"
     inkscape:window-y="-8"
     inkscape:window-maximized="1"
     inkscape:current-layer="svg963" />
  <g
     transform="matrix(1,0,0,-1,0,896)"
     id="g961">
    <path
       fill="currentColor"
       d="M 478,107 H 375 v 307 h 51 v -68 l 52,-35 z M 444,789 410,721 H 239 V 653 L 375,619 V 516 l 69,-34 34,-102 h 68 l 34,102 69,34 v 103 l 136,34 v 68 H 614 l -34,68 z m 68,-68 68,-68 -68,-68 -68,68 z M 547,107 H 649 V 414 H 597 V 346 L 547,311 Z M 785,585 717,567 V 346 l 68,34 z m -546,0 68,-18 V 346 l -68,34 z"
       id="path959" />
  </g>
</svg>
